X: 1
T: Oyster Wife's Rant
R: Reel
M: 4/4
L: 1/8
K: Ador
|e2ed eAAB|dedB GABd|e2ed efge|dBgB A2(3Bcd|
|e2ed eAAB|dedB GABd|e2ed efge|dBgB A4|
|edef g2fe|dedB dedB|edef g2fe|dBgB A2(3Bcd|
|edef g2fe|dedB dedB|edef gage|dBgB A4|